!!!COM: Rore
!!!OTL: Sonno
**kern	**text	**kern	**text	**kern	**text	**kern	**text
*staff4	*staff4	*staff3	*staff3	*staff2	*staff2	*staff1	*staff1
*I"Bassus	*	*I"Tenor	*	*I"Altus	*	*I"Cantus	*
*clefF4	*	*clefGv2	*	*clefG2	*	*clefG2	*
*k[b-]	*	*k[b-]	*	*k[b-]	*	*k[b-]	*
*met(C)	*	*met(C)	*	*met(C)	*	*met(C)	*
*M4/2	*	*M4/2	*	*M4/2	*	*M4/2	*
*met(C|)	*	*met(C|)	*	*met(C|)	*	*met(C|)	*
=1-	=1-	=1-	=1-	=1-	=1-	=1-	=1-
0D	O	1.f\	O	0a	O	0dd	O
.	.	[2d\	son-	.	.	.	.
=2	=2	=2	=2	=2	=2	=2	=2
0D	son-	1d\]	.	2.f/	son-	2.a/	son-
.	.	.	.	4e/	.	4g/	.
.	.	1A/	-no,	1d/	.	1f/	.
=3	=3	=3	=3	=3	=3	=3	=3
1AA/	-no,	1A/	.	1c#/	-no,	1e/	-no,
2r	.	2r	.	2r	.	2r	.
[2E\	o	[2Bn\	o	[2e/	o	[2g#/	o
=4	=4	=4	=4	=4	=4	=4	=4
2E\]	.	2B\]	.	2e/]	.	2g#/]	.
1E\	del-	1Bn\	del-	1e/	del-	1g#/	del-
2E\	-la	2G#/	-la	2e/	-la	2g#/	-la
=5	=5	=5	=5	=5	=5	=5	=5
*M3/1	*	*M3/1	*	*M3/1	*	*M3/1	*
1E\	que-	1Bn\	que-	1e/	que-	1g#/	que-
1AA/	-ta	1e\	-ta	1c#/	-ta	1a/	-ta
2AA/	ni-	2e\	ni-	2c#/	ni-	2a/	ni-
2AA/	-om-	2e\	-om-	2c#/	-om-	2a/	-om-
=6	=6	=6	=6	=6	=6	=6	=6
*met(C)	*	*met(C)	*	*met(C)	*	*met(C)	*
*M4/2	*	*M4/2	*	*M4/2	*	*M4/2	*
*met(C|)	*	*met(C|)	*	*met(C|)	*	*met(C|)	*
1AA/	-bro-	1e\	-bro-	1c#/	-bro-	1a/	-bro-
1D\	-sa	1A/	-sa	1d/	-sa	1a/	-sa
=7	=7	=7	=7	=7	=7	=7	=7
!!linebreak:original
*M3/1	*	*M3/1	*	*M3/1	*	*M3/1	*
1.BB-/	Not-	1.B-\	Not-	1f/	Not-	1.d/	Not-
.	.	.	.	1.f/	.	.	.
1BB-/	-te	1B-\	-te	.	.	1d/	-te
[2F\	pla-	2A/	pla-	[2c/	-pla-	[2f/	pla-
=8	=8	=8	=8	=8	=8	=8	=8
*met(C)	*	*met(C)	*	*met(C)	*	*met(C)	*
*M4/2	*	*M4/2	*	*M4/2	*	*M4/2	*
*met(C|)	*	*met(C|)	*	*met(C|)	*	*met(C|)	*
2F\]	.	2A/	.	2c/]	.	2f/]	.
2C/	-ci-	2G/	-ci-	2c/	-ci-	2e/	-ci-
1C/	-do	1G/	-do	1c/	-do	1e/	-do
=9	=9	=9	=9	=9	=9	=9	=9
0G	fi-	0Bn	fi-	0d	fi-	0g	fi-
=10	=10	=10	=10	=10	=10	=10	=10
1C/	-glio,	0c	-glio,	0e	-glio,	1g/	-glio,
1r	.	.	.	.	.	1r	.
=11	=11	=11	=11	=11	=11	=11	=11
*M3/1	*	*M3/1	*	*M3/1	*	*M3/1	*
1.A\	o	1r	.	1r	.	2r	.
.	.	.	.	.	.	1cc\	o
.	.	1f\	o	1a/	o	.	.
1D\	de'	.	.	.	.	1a/	de'
.	.	2d\	el'	2f/	el'	.	.
2D\	mor-	2d\	mor-	2f/	mor-	2a/	mor-
=12	=12	=12	=12	=12	=12	=12	=12
1D\	-ta-	1d\	-ta-	1f/	-ta-	1a/	-ta-
1A\	-li	1c#\	-li	1e/	-li	1a/	-li
2G\	gri	2d\	gri	2g/	gri	2b-\	gri
2F\	con-	2f\	con-	2a/	con-	2cc\	con-
=13	=13	=13	=13	=13	=13	=13	=13
*met(C)	*	*met(C)	*	*met(C)	*	*met(C)	*
*M4/2	*	*M4/2	*	*M4/2	*	*M4/2	*
*met(C|)	*	*met(C|)	*	*met(C|)	*	*met(C|)	*
1B-\	-for-	1f\	-for-	1b-\	-for-	1dd\	-for-
1B-\	-to,	1f\	-to,	1b-\	-to,	1dd\	-to,
=14	=14	=14	=14	=14	=14	=14	=14
!!linebreak:original
2r	.	2r	.	2r	.	2r	.
2c\	o-	2e\	o-	2g/	o-	2cc\	o-
1c\	-blio	1e\	-blio	1g/	-blio	1cc\	-blio
=15	=15	=15	=15	=15	=15	=15	=15
1c\	dol-	1e-\	dol-	1g/	dol-	1cc\	dol-
1G\	-ce	1d\	-ce	2g/	-ce	1bn\	-ce
.	.	.	.	2g/	de'	.	.
=16	=16	=16	=16	=16	=16	=16	=16
*M3/1	*	*M3/1	*	*M3/1	*	*M3/1	*
2G\	de'	2d\	de'	1g/	ma-	2bn\	de'
1B-\	ma-	1d\	ma-	.	.	1b-\	ma-
.	.	.	.	1f/	-li	.	.
2F\	-li	2c\	-li	.	.	2a/	-li
1G\	Si	1Bn\	Si	1d/	Si	1g/	Si
=17	=17	=17	=17	=17	=17	=17	=17
1C/	gra-	1c\	gra-	1e-/	gra-	1g/	gra-
1D\	-vi,	1A/	-vi,	1d/	-vi,	1f#/	-vi,
2r	.	2r	.	2r	.	2r	.
[2A\	ond'	[2c\	ond'	[2en/	ond'	2a/	ond'
=18	=18	=18	=18	=18	=18	=18	=18
*met(C)	*	*met(C)	*	*met(C)	*	*met(C)	*
*M4/2	*	*M4/2	*	*M4/2	*	*M4/2	*
*met(C|)	*	*met(C|)	*	*met(C|)	*	*met(C|)	*
2A\]	.	2c\]	.	2e/]	.	2a/	.
2F\	&egrave;	2c\	&egrave;	2f/	&egrave;	2a/	&egrave;
2B-\	la	2d\	la	2g/	la	2b-\	la
[2A\	vi-	[2e\	vi-	[2a/	vi-	[2cc\	vi-
=19	=19	=19	=19	=19	=19	=19	=19
1A\]	.	1e\]	.	2a/]	.	2cc\]	.
.	.	.	.	1cc\	-ta	1a/	-ta
1d\	-ta	1f\	-ta	.	.	.	.
.	.	.	.	2b-\	spra	2b-\	spra
=20	=20	=20	=20	=20	=20	=20	=20
1c\	spra	1e\	spra	2a/	no-	1cc\	no-
.	.	.	.	2.a/	-io-	.	.
1B-\	no-	1d\	no-	.	.	[1dd\	-io-
.	.	.	.	8g/L	.	.	.
.	.	.	.	8f/JJ	.	.	.
.	.	.	.	2g/	.	.	.
=21	=21	=21	=21	=21	=21	=21	=21
!!linebreak:original
0A	-io-	0e	-io-	0a	-sa,	2dd\]	.
.	.	.	.	.	.	4cc#\	.
.	.	.	.	.	.	4bn\J	.
.	.	.	.	.	.	1cc#\	.
=22	=22	=22	=22	=22	=22	=22	=22
*M3/1	*	*M3/1	*	*M3/1	*	*M3/1	*
1D\	-sa,	1d\	-sa,	1a/	.	1dd\	-sa,
1r	.	1r	.	1r	.	1r	.
1F\	Soc-	1c\	Soc-	1f/	Soc-	1a/	Soc-
=23	=23	=23	=23	=23	=23	=23	=23
1BB-/	-cor-	1d\	-cor-	1f/	-cor-	1b-\	-cor-
2F\	-ri	2c\	-ri	2f/	-ri	2a/	-ri
1G\	alcor	1B-\	alcor	1d/	alcor	1g/	alcor
2E-\	o-	2G/	o-	2c/	o-	2g/	o-
=24	=24	=24	=24	=24	=24	=24	=24
*met(C)	*	*met(C)	*	*met(C)	*	*met(C)	*
*M4/2	*	*M4/2	*	*M4/2	*	*M4/2	*
*met(C|)	*	*met(C|)	*	*met(C|)	*	*met(C|)	*
1D\	-mai,	1A/	-mai,	1d/	-mai,	1f#/	-mai,
1BB-/	soc-	1f\	soc-	1b-\	soc-	1dd\	soc-
=25	=25	=25	=25	=25	=25	=25	=25
*M3/1	*	*M3/1	*	*M3/1	*	*M3/1	*
1B-\	-cor-	1f\	-cor-	1b-\	-cor-	1dd\	-cor-
2F\	-ri	2f\	-ri	2a/	-ri	2cc\	-ri
1G\	alcor	1d\	alcor	1g/	alcor	1b-\	alcor
2E-\	o-	2c\	o-	2g/	o-	2g/	o-
=26	=26	=26	=26	=26	=26	=26	=26
*met(C)	*	*met(C)	*	*met(C)	*	*met(C)	*
*M4/2	*	*M4/2	*	*M4/2	*	*M4/2	*
*met(C|)	*	*met(C|)	*	*met(C|)	*	*met(C|)	*
0D	-mai	1A/	-mai	1f#/	-mai	1a/	-mai
.	.	2r	.	2r	.	2r	.
.	.	2A/	cha	2a/	cha	2f/	cha
=27	=27	=27	=27	=27	=27	=27	=27
!!linebreak:original
0r	.	1B-\	lan-	1d/	lan-	1g/	lan-
.	.	1A/	-gu'e	1e/	-gu'e	1a/	-gu'e
=28	=28	=28	=28	=28	=28	=28	=28
0r	.	1d\	po-	1f/	po-	1b-\	po-
.	.	2d\	-sa	2f/	-sa	2a/	-sa
.	.	2c\	Non	2e/	Non	2a/	Non
=29	=29	=29	=29	=29	=29	=29	=29
0r	.	1B-\	ha-	1d/	ha-	1g/	ha-
.	.	1A/	-ve,	1e/	-ve,	1a/	-ve,
=30	=30	=30	=30	=30	=30	=30	=30
2r	.	2r	.	2r	.	2r	.
2F\	e	2A/	e	2f/	e	2cc\	e
2F\	que-	2A/	que-	2f/	que-	2cc\	que-
2F\	-ste	2A/	-ste	2f/	-ste	2cc\	-ste
=31	=31	=31	=31	=31	=31	=31	=31
1C/	mem-	1G/	mem-	1e/	mem-	1cc\	mem-
1BB-/	-bra	1B-\	-bra	1f/	-bra	1dd\	-bra
=32	=32	=32	=32	=32	=32	=32	=32
1E-\	stanch'	1B-\	stanch'	1g/	stanch'	1b-\	stanch'
2E-\	e	2e-\	e	2g/	e	2b-\	e
[2F\	fra-	[2c\	fra-	[2f/	fra-	[2a/	fra-
=33	=33	=33	=33	=33	=33	=33	=33
2F\]	.	2c\]	.	2f/]	.	2a/]	.
1C/	-li	1c\	-li	1e/	-li	1g/	-li
2C/	Sol-	2c\	Sol-	2e/	Sol-	2g/	Sol-
=34	=34	=34	=34	=34	=34	=34	=34
*M3/1	*	*M3/1	*	*M3/1	*	*M3/1	*
1G\	-le-	1d\	-le-	1g/	-le-	1bn\	-le-
1c\	-va.	1e\	-va.	1g/	-va.	1cc\	-va.
2r	.	1r	.	1r	.	2r	.
2A\	A	.	.	.	.	2ee\	A
!!linebreak:original
=35	=35	=35	=35	=35	=35	=35	=35
!!linebreak:original
*met(C)	*	*met(C)	*	*met(C)	*	*met(C)	*
*M4/2	*	*M4/2	*	*M4/2	*	*M4/2	*
*met(C|)	*	*met(C|)	*	*met(C|)	*	*met(C|)	*
2A\	me	1c#\	A	1a/	A	2ee\	me
2A\	t'en-	.	.	.	.	2ee\	t'en-
1A\	-vo-	2c#\	me	2a/	me	1ee\	-vo-
.	.	2c#\	t'en-	2a/	t'en-	.	.
=36	=36	=36	=36	=36	=36	=36	=36
0d	-la,	1d\	-vo-	1a/	-vo-	1ff\	-la,
.	.	1f\	-la,	2a/	-la,	[1dd\	son-
.	.	.	.	[2a/	oson-	.	.
=37	=37	=37	=37	=37	=37	=37	=37
1B-\	son-	1d\	son-	4a/]	.	1dd\]	.
.	.	.	.	8g/L	.	.	.
.	.	.	.	8f/J	.	.	.
.	.	.	.	2g/	.	.	.
1A\	-no,	1e\	-no,	1a/	-no,	1cc#\	-no,
=38	=38	=38	=38	=38	=38	=38	=38
2r	.	1r	.	1r	.	2r	.
2A\	a	.	.	.	.	2ee\	a
2A\	me	1c#\	a	1a/	a	2ee\	me
2A\	t'en-	.	.	.	.	2ee\	t'en-
=39	=39	=39	=39	=39	=39	=39	=39
1A\	-vo-	2c#\	me	2a/	me	1ee\	-vo-
.	.	2c#\	t'en-	2a/	t'en-	.	.
[1d\	-la,	1d\	-vo-	1a/	-vo-	1ff\	-la,
=40	=40	=40	=40	=40	=40	=40	=40
1d\]	.	1f\	-la,	2b-\	-la,	0dd	son-
.	.	.	.	2.a/	oson-	.	.
1B-\	son-	1d\	son-	.	.	.	.
.	.	.	.	8g/L	.	.	.
.	.	.	.	8f/J	.	.	.
.	.	.	.	2g/	.	.	.
=41	=41	=41	=41	=41	=41	=41	=41
1.A\	-no,	1e\	-no,	1a/	-no,	1cc#\	-no,
.	.	2r	.	2r	.	2r	.
2B-\	e	2d\	e	2f/	e	2dd\	e
=42	=42	=42	=42	=42	=42	=42	=42
!!linebreak:original
1B-\	l'a-	1f\	l'a-	1b-\	l'a-	1dd\	l'a-
2F\	-li	2f\	-li	2a/	-li	2cc\	-li
2G\	Tue	2d\	Tue	2g/	Tue	2b-\	Tue
=43	=43	=43	=43	=43	=43	=43	=43
1D\	bru-	1d\	bru-	1f/	bru-	1a/	bru-
1AA/	-ne	1c#\	-ne	1e/	-ne	1a/	-ne
=44	=44	=44	=44	=44	=44	=44	=44
2E\	so-	2e\	so-	2g#/	so-	2bn\	so-
2E\	-vra	2e\	-vra	2g#/	-vra	2b\	-vra
2E\	me	2e\	me	2g#/	me	2b\	me
2E\	di-	2e\	di-	2g#/	di-	2b\	di-
=45	=45	=45	=45	=45	=45	=45	=45
1E\	-sten-	1e\	-sten-	1g#/	-sten-	1bn\	-sten-
1A\	-di	1c#\	-di	1a/	-di	1e/	-di
=46	=46	=46	=46	=46	=46	=46	=46
0D	po-	0d	po-	0f#	po-	0a	po-
=47	=47	=47	=47	=47	=47	=47	=47
0D;l	-sa.	0d;l	-sa.	0f#;l	-sa.	0a;l	-sa.
!!LO:LB:i:g=z
=48	=48	=48	=48	=48	=48	=48	=48
!!!OMD: Secunda pars
*M6/1	*	*M6/1	*	*M6/1	*	*M6/1	*
*met(O)	*	*met(O)	*	*met(O)	*	*met(O)	*
0.r	.	0Bn	Ov'	0.r	.	0bn	Ov'
.	.	1c\	&egrave;'l	.	.	1a/	&egrave;'l
1r	.	1B\	si-	1r	.	1g/	si-
0A	Ov'	0c	-len-	0e	Ov'	0a	-len-
=49	=49	=49	=49	=49	=49	=49	=49
!!linebreak:original
1E\	&egrave;'l	[0.Bn	-tio	1g/	&egrave;'l	1bn\	-tio,
1D#\	si-	.	.	1f#/	si-	0b	ov'
0E	-len-	.	.	0g	-len-	.	.
.	.	1B\]	.	.	.	0e	&egrave;'l
0BBn	-tio	0r	.	0f#	-tio	.	.
.	.	.	.	.	.	1d#/	si-
=50	=50	=50	=50	=50	=50	=50	=50
*met(C)	*	*met(C)	*	*met(C)	*	*met(C)	*
*M4/2	*	*M4/2	*	*M4/2	*	*M4/2	*
*met(C|)	*	*met(C|)	*	*met(C|)	*	*met(C|)	*
1E\	che'l	1.Bn\	che'l	2r	.	1e/	-len-
.	.	.	.	1g/	che'l	.	.
2E\	di	.	.	.	.	1e/	-tio
[2C/	fug-	2c\	di	2g/	di	.	.
=51	=51	=51	=51	=51	=51	=51	=51
4C\L]	.	2.e\	fug-	2.g/	fug-	2r	.
4D\	.	.	.	.	.	.	.
4E\	.	.	.	.	.	1g/	che'l
4F\J	.	8d\LL	.	8f/LL	.	.	.
.	.	8c\JJ	.	8e/JJ	.	.	.
2G\	.	2Bn\	.	2d/	.	.	.
2C/	-ge	2c\	-ge	[2e/	-ge	2g/	di
=52	=52	=52	=52	=52	=52	=52	=52
1r	.	1r	.	4e/L]	.	2.g/	fug-
.	.	.	.	4d/J	.	.	.
.	.	.	.	4e/L	.	.	.
.	.	.	.	8d/L	.	8f/LL	.
.	.	.	.	8c/JJ	.	8e/JJ	.
2r	.	1G/	e'l	2Bn/	.	2d/	.
2C/	e'l	.	.	2e/	e'l	2e/	-ge
=53	=53	=53	=53	=53	=53	=53	=53
1BBn/	lu-	1Bn\	lu-	1dn/	lu-	1f#/	lu-
1E\	-me,	2B\	-me,	1e/	-me,	2g/	-me,
.	.	2B\	Ei	.	.	2bn\	E
=54	=54	=54	=54	=54	=54	=54	=54
1r	.	2c\	lie-	1r	.	2a/	lie-
.	.	2Bn\	-vi	.	.	2g#/	-vi
1A\	E	1c\	so-	1e/	E	1a/	so-
=55	=55	=55	=55	=55	=55	=55	=55
!!linebreak:original
2E\	lie-	1Bn\	-gni	2g/	lie-	1bn\	-gni
2D#\	-vi	.	.	2f#/	-vi	.	.
1E\	so-	1r	.	1g/	so-	1r	.
=56	=56	=56	=56	=56	=56	=56	=56
2BBn/	-gni	1d\	che	2f#/	-gni	1bn\	che
2Bn\	che	.	.	2f#/	che	.	.
2B\	con	2d\	con	2f#/	con	2b\	con
2B\	non	2d\	non	2f#/	non	2b\	non
=57	=57	=57	=57	=57	=57	=57	=57
2Bn\	si-	2d\	si-	2f#/	si-	2bn\	si-
2.B\	-cu-	2.d\	-cu-	2.f#/	-cu-	2.b\	-cu-
4B\	-re	4d\	-re	4f#/	-re	4b\	-re
2B\	Ve-	2d\	Ve-	2f#/	Ve-	2b\	Ve-
=58	=58	=58	=58	=58	=58	=58	=58
1.E\	-sti-	1.e\	-sti-	1.g/	-sti-	1.bn\	-sti-
2C/	-gia	2e\	-gia	2g/	-gia	2cc\	-gia
=59	=59	=59	=59	=59	=59	=59	=59
1F\	di	1c\	di	1f/	di	1a/	di
2D\	se-	2d\	se-	2f/	se-	2a/	se-
[2A\	-guir-	[2c#\	-guir-	[2e/	-guir-	[2a/	-guir-
=60	=60	=60	=60	=60	=60	=60	=60
2A\]	-ti	2c#\]	-ti	2e/]	-ti	2a/]	-ti
2A\	han	2c#\	han	2e/	han	2a/	han
2G\	per	2d\	per	2g/	per	2bn\	per
2B-\	co-	2d\	co-	2f/	co-	2dd\	co-
=61	=61	=61	=61	=61	=61	=61	=61
1A\	-stu-	1e\	-stu-	1a/	-stu-	1cc#\	-stu-
[1d\	-me?	1f#\	-me?	1a/	-me?	1dd\	-me?
=62	=62	=62	=62	=62	=62	=62	=62
1d\]	.	0r	.	1a/	.	1r	.
1r	.	.	.	1r	.	[1b-\	Las-
=63	=63	=63	=63	=63	=63	=63	=63
!!linebreak:original
0r	.	0d	Las-	0f	Las-	1b-\]	.
.	.	.	.	.	.	1a/	-so,
=64	=64	=64	=64	=64	=64	=64	=64
1r	.	1A/	-so,	1e/	-so,	1r	.
[1D\	Las-	[1f\	las-	[1a/	las-	[1dd\	las-
=65	=65	=65	=65	=65	=65	=65	=65
1D\]	.	1f\]	.	1a/]	.	1dd\]	.
1AA/	-so	1e\	-so	1a/	-so	1cc#\	-so
=66	=66	=66	=66	=66	=66	=66	=66
2A\	ch'in	2e\	ch'in	2a/	ch'in	2cc#\	ch'in
1G\	van	1g\	van	1bn\	van	2dd\	van
.	.	.	.	.	.	2ee\	ti
2F\	ti	2a\	ti	2cc\	ti	[2ff\	chia-
=67	=67	=67	=67	=67	=67	=67	=67
1.c\	chia-	1g\	chia-	1cc\	chia-	2ff\]	.
.	.	.	.	.	.	2ee\	-mo,
.	.	2g\	-mo	2cc\	-mo,	2r	.
2c\	-mo	2a\	eque-	2r	.	2ee\	e
=68	=68	=68	=68	=68	=68	=68	=68
2d\	que-	2f\	-ste	2a/	e	2ff\	que-
2B-\	-ste	2.g\	cvscur'	2b-\	que-	2dd\	-ste
2.c\	cvscur'	.	.	2g/	-ste	2.ee\	cvscur'
.	.	4e\	e	.	.	.	.
.	.	2e\	Ge-	[2a/	cvscur'	.	.
4A\	e	.	.	.	.	4cc\	e
=69	=69	=69	=69	=69	=69	=69	=69
2A\	Ge-	2f\	-li-	4a/]	.	2cc\	Ge-
.	.	.	.	4f/	e	.	.
2B-\	-li-	2d\	-de	2f/	Ge-	2dd\	-li-
2G\	-de	1e\	om-	2g/	-li-	2bn\	-de
[2A\	om-	.	.	2e/	-de	[2cc\	om-
=70	=70	=70	=70	=70	=70	=70	=70
!!linebreak:original
2A\]	.	2c\	-bre	1f/	om-	2cc\]	.
2F\	-bre	2d\	invan	.	.	2a/	-bre
2G\	invan	2B-\	lu-	2d/	-bre	2b-\	invan
2E\	lu-	2c\	-sin-	2e/	invan	2g/	lu-
=71	=71	=71	=71	=71	=71	=71	=71
2.F\	-sin-	4c/L	.	2c/	lu-	1.a/	-sin-
.	.	4B-/	.	.	.	.	.
.	.	4A/	.	1f/	-sin-	.	.
4E\	.	4G/J	.	.	.	.	.
1D\	.	1F/	.	.	.	.	.
.	.	.	.	4e/L	.	4g/L	.
.	.	.	.	4d/J	.	4f/J	.
=72	=72	=72	=72	=72	=72	=72	=72
0C	-go:	0c	-go:	1e/	.	2g/	.
.	.	.	.	.	.	2a/	.
.	.	.	.	1e/	-go:	1g/	-go:
=73	=73	=73	=73	=73	=73	=73	=73
0r	.	1r	.	1r	.	1r	.
.	.	[1a\	O	[1cc\	O	[1ff\	O
=74	=74	=74	=74	=74	=74	=74	=74
0F	O	1a\]	.	1cc\]	.	1ff\]	.
.	.	[1f\	pin-	[1a/	pin-	[1dd\	pin-
=75	=75	=75	=75	=75	=75	=75	=75
0A	pin-	1f\]	.	1a/]	.	1dd\]	.
.	.	1e\	-me	1a/	-me	1cc\	-me
=76	=76	=76	=76	=76	=76	=76	=76
1D\	-me	1d\	D'a-	1f/	D'a-	2b-\	D'a-
.	.	.	.	.	.	1a/	-sprez-
1E\	D'a-	[1c\	-sprez-	[1e/	-sprez-	.	.
.	.	.	.	.	.	[2g/	-za
=77	=77	=77	=77	=77	=77	=77	=77
1G\	-sprez-	2c\]	.	2e/]	.	2g/]	.
.	.	2B-\	-za	2d/	-za	2.b-\	col-
1A\	-za	1c\	col-	[1f/	col-	.	.
.	.	.	.	.	.	4a/	.
.	.	.	.	.	.	2a/	.
=78	=78	=78	=78	=78	=78	=78	=78
!!linebreak:original
0B-	col-	1d\	-me,	2f/]	.	2a/	.
.	.	.	.	2d/	.	4g/L	.
.	.	.	.	.	.	4f/J	.
.	.	1r	.	1d/	-me,	1g/	.
=79	=79	=79	=79	=79	=79	=79	=79
1A\	-me,	0r	.	0r	.	1a/	-me,
1r	.	.	.	.	.	1r	.
=80	=80	=80	=80	=80	=80	=80	=80
0F	o	1.a\	o	1.cc\	o	1.ff\	o
.	.	[2f\	not-	2a/	not-	[2dd\	not-
=81	=81	=81	=81	=81	=81	=81	=81
1A\	not-	2f\]	.	1a/	.	2dd\]	.
.	.	2e\	-ti	.	.	2cc\	-ti
1D\	-a-	[1d\	zvcerb'	1f/	-ti	2.b-\	zvcerb'
.	.	.	.	.	.	4a/	.
=82	=82	=82	=82	=82	=82	=82	=82
1G\	-cerb'	1d\]	.	1b-\	cerb'	1g/	.
1A\	e	1a\	e	1cc\	e	1ff\	e
=83	=83	=83	=83	=83	=83	=83	=83
0d	du-	0f	du-	0b-	du-	2.ff\	du-
.	.	.	.	.	.	4ee\	.
.	.	.	.	.	.	1dd\	.
=84	=84	=84	=84	=84	=84	=84	=84
0A;l	-re.	0e;l	-re.	0a;l	-re.	0cc#;l	-re.
==	==	==	==	==	==	==	==
*-	*-	*-	*-	*-	*-	*-	*-
!!!RDF**kern: l=long note in original notation
!!!RDF**kern: i=musica ficta
!!!rscale: 2
!!muse2ps: i2I100v125,125,125,180
